X:791
T:Lucy Farr's I
S:Robert Fish Band
D:Robert Fish Band
Z:Nigel Gatherer
M:2/4
L:1/8
K:G
Bc/B/ AG | EG GA | Bc/B/ AG    | Bd ed  |
Bc/B/ AG | EG GA | BG/B/ dB    | AG G2 :|
gd    ed | Bd d2 | gd    ed    | Bd A2  |
gd    ed | Bd ed | Bc/B/ AG/A/ | BG G2 :|]
<end>
<start>
